X: 34951
T: Rocky Road To Dublin, The
R: slip jig
M: 9/8
K: Adorian
ag|e3 d2B A2a|e2A A2G B2d|e2e d2B A2d|BG2 [G2B2]A B2d|
e2Bd2BA2a|eA2 A2G B2d|e2B d2B A2d|BG2 [G2B2]A B2d|
e2a ~a3 g3|ea2 {b}aA2 B2d|ea2 ~a3 g3|d2B G2A B2d|
e2a a2f (fg2)|e2a a2A B2d|efg fga g2e|d2B G2A B2d|

